X:24
T:Auld Lang Syne
R:Strathspey
N:"As arranged by John McAlpin, Killen"
B:The Athole Collection
M:C
L:1/8
K:A
E|A2A>c B>AB>c|AAA>a f2f>a|e<cc>A B>AB>c|A>FE>F A2A:|
|:a|e<cc>A B>AB>c|e<cc>e f>ga>f|e>cc>A B>AB>c|A>FE>F A2A:|

